X:1
T:Erravi Domine
T:Constantijn Huygens
T:Erravi Domine
T:Psalmus 119:176
C:Constantijn Huygens
%%score 1 { ( 2 4 ) | ( 3 5 ) }
L:1/8
Q:1/4=80
M:4/4
K:F
V:1 treble nm="Voice" snm="V"
V:2 treble nm="Organ" snm="Org."
V:4 treble 
V:3 bass 
V:5 bass 
V:1
 z4 G4 | G6 ^F2 | G4 z2 G2 | G6 D2 | _E6 D2 | D2 D2 D2 G2- | G2 AA B4 | A2 c3 cB(A | G2) A4 G2- | %9
w: Er-|ra- vi,|_ er-|ra- vi,|Do- mi-|ne, er- ra- vi|_ si- cut o-|vis, si- cut o- vis,|_ o- *|
 G2 FF E3 D | D8 :: A4 A2 d2- | dc=BB c2 A2 | z2 B4- BF | GG F2 D2 D2- | %15
w: * vis, quae pe- ri-|it.|Quae- re, quae-|* re ser- vum tu- um,|quae- * re|ser- vum tu- um, quae-|
 D/E/F/D/ G2 z/ G/A/B/ c2- | c3/2 c/B/A/G/B/ A2 A2- | AB/A/ GF EA G/A/E | %18
w: |||
 ^F>D E/F/G/A/ B/A/c/B/ d2- | dcBA A4 | G8 | z2 G2 GGGG | GG A>(G ^F2) z G | G3 (^F G4) | %24
w: |* re ser- vum tu-|um,|qui- a man- da- ta|tu- a non sum _ o-|bli- tus, _|
 z GGG GG A2- | A G^FG G3 (F | G8) :| %27
w: man- da- ta tu- a non|_ sum _ o- bli- tus.|_|
V:2
 [DGB]8 | [Cc]8 | [DG=B]8 | [=B,DG]8 | G4 A4 | [DGB]8 | d3 c [D-B]4 | [D^FA]2 [C=Fc]4 [DFB]2 | %8
 [EG]2 F4 ED | ^C2 D4 C2 | [^F,A,D]8 :: A6- AG | A2 =B2 c4 | [FBd]8 | B3 A G3 =E | F4 G4- | %16
 G4 A4- | A2 [GB]2 [EA]4 | [D^FA]8 | ^F2 G4 F2 | [B,DG]8 | [DGB]8 | [Gc]4 [^FA]2 [GB]2 | %23
 G2 ^F2 G4 | G8 | G6 ^F2 | [=B,DG]8 :| %27
V:3
 G,8 | A,8 | G,8 | G,,8 | x8 | G,,4 G,4- | G,2 ^F,2 G,4 | D,2 A,,4 B,,2 | C,2 F,,2 G,,4 | %9
 A,,4 A,,4 | D,8 :: D4 C2 B,2 | ^F,2 G,2 E,2 =F,2 | B,,8 | _E,2 F,2 G,4 | D,4 _E,4 | %16
 !courtesy!=E,4 F,2 ^F,2- | F,2 G,2 A,2 A,,2 | D,8 | D,,8 | G,,8 | G,8 | C,4 D,4 | D,4 G,,4 | %24
 G,4 C,4 | D,4 D,,4 | G,,8 :| %27
V:4
 x8 | G6 ^F2 | x8 | x8 | [C_E]8 | x8 | [GB]2 [DA-]2 A2 G2 | x8 | C2 A,2 B,4 | A,G, F,2 [E,A,]4 | %10
 x8 :: F4- FE D2- | D2 [DG]2 G2 [FA]2 | x8 | [_EG]2 [CF]2 [B,D]4 | [A,D]2 B,2- [B,_E]4 | %16
 C4 [CF]2 D2- | D4- D3 ^C | x8 | D4 [A,D]4 | x8 | x8 | _E4 D4- | [DA]4 [DB]4 | [B,D]4 [C_E]4 | %25
 [A,D]8 | x8 :| %27
V:5
 x8 | x8 | x8 | x8 | C,8 | x8 | x8 | x8 | x8 | x8 | x8 :: x8 | x8 | x8 | x8 | x8 | x8 | x8 | x8 | %19
 x8 | x8 | x8 | x8 | x8 | x8 | x8 | x8 :| %27

